!! J.S. Bach, Die Kunst der Fuge; Fuga 8a in d minor; BWV 1080.
!! Encoded from "Bach; Die Kunst der Fuge", (Carl Czerny, ed.)
!! New York: C.F. Peters Co., pp.46-48; in three voices.
!! Performance duration: 3:05; performance tempo: 92.0 quarter-notes per minute.
!! (Davitt Moroney, harpsichord, "Bach, 'Die Kunst der Fuge'",
!! Harmonia Mundi No. HMC 1169.70)
!! NOTE: This is the second part (inversion) of a two-part fugue.
!!       The first part is encoded in a separate file (kdf.13a).
**kern	**kern	**kern
*d:	*d:	*d:
*M4/4	*M4/4	*M4/4
*MM92	*MM92	*MM92
4r	4r	4a'
=1	=1	=1
1r	4dd'	1r
.	[4d	.
.	12d]	.
.	12e	.
.	12f	.
.	12e	.
.	12f	.
.	12g	.
=2	=2	=2
1r	12f	1r
.	12g	.
.	12a	.
.	[4g	.
.	12g]	.
.	12a	.
.	12b-	.
.	12a	.
.	12b-	.
.	12cc	.
=3	=3	=3
1r	12b-	1r
.	12a	.
.	12g	.
.	[4a	.
.	12a]	.
.	12g	.
.	12f	.
.	12g	.
.	12f	.
.	12e	.
=4	=4	=4
2r	8.f	1r
.	16a	.
.	8.dd	.
.	16a	.
4r	8.f	.
.	16e	.
4D'	8.f	.
.	16g	.
=5	=5	=5
4AA'	12a	1r
.	12e	.
.	12g	.
[4A	12f	.
.	12e	.
.	12d	.
12A]	4c#	.
12G	.	.
12F	.	.
12G	4b-	.
12F	.	.
12E	.	.
=6	=6	=6
12F	[4a	1r
12E	.	.
12D	.	.
[4E	12a]	.
.	12g	.
.	12f	.
12E]	[2g	.
12D	.	.
12C#	.	.
12D	.	.
12C#	.	.
12BBn	.	.
=7	=7	=7
12C#	4g_	1r
12D	.	.
12E	.	.
[4D	12g]	.
.	12f	.
.	12e	.
12D]	8.f	.
12E	.	.
12F	.	.
.	16dd	.
12E	8.ccn	.
12F	.	.
12G	.	.
.	16b-	.
=8	=8	=8
8.F	[2a	2r
16D	.	.
8.AA	.	.
16D	.	.
8.F	8.a]	4r
16G	16b-	.
8.F	8.a	4dd'
16E	16g	.
=9	=9	=9
12D	4f	4aa'
12C#	.	.
12BBn	.	.
12C#	4r	[4a
12D	.	.
12E	.	.
4F	4r	12a]
.	.	12bn
.	.	12ccn
4GG#	4f	12b
.	.	12cc
.	.	12dd
=10	=10	=10
4AA	12e	12cc
.	12f	12dd
.	12g	12ee
4r	12f	[4dd
.	12e	.
.	12g	.
4r	12f	12dd]
.	12e	12ee
.	12d	12ff
[4A	12c#	12ee
.	12d	12ff
.	12e	12gg
=11	=11	=11
4A]	4d	12ff
.	.	12ee
.	.	12dd
12G#	4r	[4ee
12A	.	.
12F#	.	.
2G#T	4r	12ee]
.	.	12dd
.	.	12cc
.	4fn	12dd
.	.	12cc
.	.	12bn
=12	=12	=12
[1A	4e	8.cc
.	.	16ee
.	4c	8.aa
.	.	16ee
.	4e	8.cc
.	.	16bn
.	8.a	8.cc
.	16bn	16dd
=13	=13	=13
8.A]	4cc	2ee
16E	.	.
8.C	4a	.
16E	.	.
8.A	4cc	4r
16B-	.	.
8.A	4ee	4cc#
16G	.	.
=14	=14	=14
8.F	4dd	4dd
16A	.	.
8.d	4d	8.ff
16A	.	16ee
8.F	2r	4dd
16D	.	.
8.E	.	4ccc
16F#	.	.
=15	=15	=15
8.G	4r	4bb-
16D	.	.
8.BB-	4g	4dd
16D	.	.
8.G	4b-	4r
16A	.	.
8.G	4dd	4bn
16F	.	.
=16	=16	=16
8.E	4cc	4cc
16G	.	.
8.c	4c	8.ee
16G	.	16dd
8.E	2r	4cc
16C	.	.
8.D	.	4bb-
16E	.	.
=17	=17	=17
8.F	1r	4.aa
16G	.	.
8.F	.	.
.	.	8gg
16E	.	.
8.D	.	8.ff
16E	.	16ee
8.F	.	8.dd
16D	.	16ff
=18	=18	=18
8.G	1r	4b-
16A	.	.
8.G	.	4bb-
16F	.	.
8.E	.	4gg
16F	.	.
8.G	.	4ee
16E	.	.
=19	=19	=19
8.A	2r	4.cc#
16B-	.	.
8.A	.	.
.	.	16dd
16G	.	16ee
8.F	4r	8.a
16E	.	16ee
8.D	4d'	8.ff
16E	.	16gg
=20	=20	=20
8.F	4A'	4.aa
16E	.	.
8.F	[4a	.
.	.	8gg
16G	.	.
4A	12a]	12ff
.	12g	12ee
.	12f	12dd
4C#	12g	8.ee
.	12f	.
.	12e	.
.	.	16bb-
=21	=21	=21
4D	12f	12aa
.	12e	12gg
.	12d	12ff
4B-	[4e	12gg
.	.	12cc#
.	.	12ee
4r	12e]	12gg
.	12d	12ff
.	12c#	[12ee
4G#	12d	8.ee]
.	12c#	.
.	12Bn	.
.	.	16ff
=22	=22	=22
4A	12c#	12ee
.	12d	12ff
.	12e	12gg
4r	[4d	12ff
.	.	12dd
.	.	12a
4r	12d]	12bn
.	12e	12cc#
.	12f	12dd
4A	12e	12cc#
.	12f	12dd
.	12g	12ee
=23	=23	=23
4D	8.f	4dd
.	16d	.
4r	8.A	4ff
.	16d	.
4r	8.f	4dd
.	16g	.
4D	8.f	4a
.	16e	.
=24	=24	=24
4G	4d	8.b-
.	.	16dd
4r	8.e	8.gg
.	16f#	16dd
4r	4g	8.b-
.	.	16g
4D	4fn	8.a
.	.	16bn
=25	=25	=25
4C	8.e-	4cc
.	16c	.
4r	8.G	4ee-
.	16c	.
4r	8.e-	4cc
.	16f	.
4C	8.e-	4g
.	16d	.
=26	=26	=26
4F	4c	8.a
.	.	16cc
4r	8.d	8.ff
.	16e-	16cc
4r	4f	8.a
.	.	16f
4C	4e-	8.g
.	.	16a
=27	=27	=27
4G	8.d	4b-'
.	16c	.
4r	8.B-	[4bb-
.	16c	.
2r	8.d	12bb-]
.	.	12aa-
.	.	12gg
.	16e-	.
.	8.f	12aa-
.	.	12gg
.	.	12ff
.	16d	.
=28	=28	=28
2r	[4e-	12gg
.	.	12ff
.	.	12ee-
.	12e-]	[4ff
.	12d	.
.	12c	.
4r	12d	12ff]
.	12c	12ee-
.	12B-	12dd
4F	12c	12ee-
.	12B-	12dd
.	12A	12cc
=29	=29	=29
4B-'	12B-	4dd
.	12b-	.
.	12cc	.
[4BB-	12dd	4ff
.	12cc	.
.	12b-	.
12BB-]	[2f	4dd
12C	.	.
12D	.	.
12C	.	4a
12D	.	.
12E-	.	.
=30	=30	=30
12D	12f]	[1b-
12E-	12g	.
12F	12a-	.
[4E-	12g	.
.	12f	.
.	12a-	.
12E-]	4g	.
12F	.	.
12G	.	.
12F	4d	.
12G	.	.
12A-	.	.
=31	=31	=31
12G	12e-	1b-_
12F	12d	.
12E-	12c	.
[4F	12d	.
.	12e-	.
.	12c	.
12F]	4d	.
12E-	.	.
12D	.	.
12E-	4g	.
12D	.	.
12C	.	.
=32	=32	=32
8.D	12f	2b-]
.	12B-	.
.	12d	.
16F	.	.
8.B-	12f	.
.	12d	.
.	12f	.
16F	.	.
8.D	8.b-	4r
16C	16en	.
8.D	8.f	4b-
16En	16g	.
=33	=33	=33
4F	12a	4f
.	12b-	.
.	12cc	.
4D	12b-	[4ff
.	12cc	.
.	12dd	.
8.AA	[2f	12ff]
.	.	12ee-
.	.	12dd
16BB-	.	.
8.C	.	12ee-
.	.	12dd
.	.	12cc
16AA	.	.
=34	=34	=34
[4BB-	1f_	12dd
.	.	12cc
.	.	12b-
12BB-]	.	[4cc
12AA	.	.
12GG	.	.
12AA	.	12cc]
12BB-	.	12b-
12C	.	12a
12D	.	12b-
12C	.	12a
12BB-	.	12g
=35	=35	=35
12C	1f_	12a
12D	.	12b-
12E-	.	12cc
12D	.	[4b-
12E-	.	.
12C	.	.
12D	.	12b-]
12C	.	12cc
12BB-	.	12dd
12AA	.	12cc
12BB-	.	12dd
12C	.	12ee-
=36	=36	=36
4BB-	2f]	8.dd
.	.	16b-
4D	.	8.f
.	.	16b-
4F	4r	8.dd
.	.	16ee-
4BB-	4d'	8.dd
.	.	16cc
=37	=37	=37
4E-	4g'	12b-
.	.	12g
.	.	12a
4r	[4G	12b-
.	.	12cc
.	.	12dd
4C	12G]	8.ee-
.	12A	.
.	12B-	.
.	.	16dd
4r	12A	8.cc
.	12B-	.
.	12c	.
.	.	16ee-
=38	=38	=38
[1G	12B-	12dd
.	12c	12ee-
.	12d	12ff
.	[4c	12ee-
.	.	12gg
.	.	12ee-
.	12c]	12cc
.	12d	12bn
.	12e-	12a
.	12d	12b
.	12e-	12cc
.	12f	12dd
=39	=39	=39
1G_	12e-	12cc
.	12d	12b-
.	12c	12a
.	[4d	12b-
.	.	12g
.	.	12a
.	12d]	12b-
.	12c	12cc
.	12B-	12dd
.	12c	12ee-
.	12B-	12dd
.	12A	12cc
=40	=40	=40
1G_	8.B-	12dd
.	.	12g
.	.	12b-
.	16d	.
.	8.g	12dd
.	.	12b-
.	.	12dd
.	16d	.
.	8.B-	8.gg
.	16A	16ff#
.	8.B-	8.gg
.	16c	16aa
=41	=41	=41
2G]	4d	8.bb-
.	.	16gg
.	4B-	8.dd
.	.	16gg
4r	4d	8.bb-
.	.	16ccc
4G	8.g	8.bb-
.	16f	16aa
=42	=42	=42
2c	8.en	4gg
.	16g	.
.	8.cc	4ee
.	16g	.
4r	8.e	4gg
.	16c	.
4G	8.d	4bb-
.	16e	.
=43	=43	=43
2F	4f	8.aa
.	.	16ff
.	4A	8.cc
.	.	16ff
4r	4c	8.aa
.	.	16bb-
4F	8.f	8.aa
.	16e	16gg
=44	=44	=44
2B-	8.d	4ff
.	16f	.
.	8.b-	4dd
.	16f	.
4r	8.d	4ff
.	16e	.
4F	8.c#	4aa
.	16d	.
=45	=45	=45
8.E	2e	4gg
16G	.	.
8.B-	.	4dd
16G	.	.
8.E	4r	4cc#
16F	.	.
8.E	4b-	4r
16D	.	.
=46	=46	=46
8.C#	4a	8r
.	.	16cc#
16E	.	16dd
8.G	4r	16ee
.	.	16ff
.	.	16gg
16E	.	16aa
8.C#	8.r	4bb-
16D	16ff	.
8.C#	12ee	4r
.	12ff	.
.	12gg	.
16BBn	.	.
=47	=47	=47
8.AA	4cc#	12r
.	.	12ee
.	.	12aa
16C#	.	.
8.E	4r	12gg
.	.	12ff
.	.	12ee
16C#	.	.
8.AA	4r	12ff
.	.	12ee
.	.	12dd
16BB-	.	.
8.AA	4e'	12cc#
.	.	12dd
.	.	12ee
16GG	.	.
=48	=48	=48
12FF	4A'	4ff
12AA	.	.
12D	.	.
12F	[4a	4r
12E	.	.
12D	.	.
4.C#T	12a]	4r
.	12g	.
.	12f	.
.	12g	4b-
.	12f	.
16BBn	.	.
.	12e	.
16C#	.	.
=49	=49	=49
4D	12f	12a
.	12e	12g
.	12d	12f
4B-	[4e	12g
.	.	12a
.	.	12f
4r	12e]	12g
.	12d	12f
.	12c#	[12e
4G#	12d	8.e]
.	12c#	.
.	12Bn	.
.	.	16f
=50	=50	=50
8.A	12c#	4e
.	12d	.
.	12e	.
16Gn	.	.
12F	[4d	4r
12G	.	.
12A	.	.
8.B-	12d]	4r
.	12e	.
.	12f	.
16D	.	.
12C#	12e	4ee
12D	12f	.
12E	12g	.
=51	=51	=51
4D	8.f	4a
.	16d	.
4F	8.A	4r
.	16d	.
4A	8.f	4r
.	16g	.
4D	8.f	4a
.	16e	.
=52	=52	=52
4G	4d	8.b-
.	.	16dd
4r	4b-	8.gg
.	.	16dd
4r	4g	8.b-
.	.	16g
4G	4d	8.a
.	.	16b-
=53	=53	=53
4GG	8.g	4e
.	16e	.
4G	8.Bn	4r
.	16e	.
4Bn	8.g	4r
.	16a	.
4E	8.g	4bn
.	16f	.
=54	=54	=54
4A	4e	8.cc
.	.	16ee
4r	4cc	8.aa
.	.	16ee
4r	4a	8.cc
.	.	16a
4A	4e	8.b-
.	.	16cc
=55	=55	=55
4AA	8.a	4f
.	16f	.
4A	8.c	4r
.	16f	.
4c	8.a	4r
.	16b-	.
4F	8.a	4cc
.	16g	.
=56	=56	=56
4B-	2f	8.dd
.	.	16ff
4d	.	8.bb-
.	.	16ff
4B-	4r	8.dd
.	.	16b-
4F#	4a	8.cc
.	.	16dd
=57	=57	=57
4G	8.b-	4g
.	16g	.
4B-	8.d	4r
.	16g	.
4G	8.b-	4r
.	16cc	.
4D	8.b-	4dd
.	16a	.
=58	=58	=58
8.E	4g	4cc#
16G	.	.
8.B-	4r	4r
16G	.	.
8.E	8.r	8.r
16C#	16e	16gg
8.D	8.f	8.ff
16E	16g	16ee
=59	=59	=59
2GG;	2c#;	2bb-;
4r	4r	4r
4G	4e	12r
.	.	12bb-
.	.	12cc#
=60	=60	=60
12F	12f	[4dd
12E	12g	.
12D	12a	.
[4G	12b-	12dd]
.	12g	12ee
.	12a	12ff
12G]	12bn	[4ee
12F	12a	.
12E	12b	.
4A	12cc#	12ee]
.	12b	12dd
.	12cc#	12ee
=61	=61	=61
4D	12dd	[4ff
.	12f	.
.	12g	.
4r	12a	12ff]
.	12g	12gg
.	12f	12aa
4r	12e	[4gg
.	12g	.
.	12a	.
4G'	12b-	12gg]
.	12a	12ff
.	12g	12gg
=62	=62	=62
4d'	12f	[1aa
.	12d	.
.	12f	.
[4D	12a	.
.	12f	.
.	12a	.
12D]	12dd	.
12E	12cc#	.
12F	12bn	.
12E	12cc#	.
12F	12dd	.
12G	12ee	.
=63	=63	=63
12F	[1dd	12aa]
12G	.	12bb-
12A	.	12ccc
[4G	.	12bb-
.	.	12gg
.	.	12dd
12G]	.	12ee
12A	.	12ff#
12B-	.	12gg
12A	.	12ff#
12B-	.	12gg
12c	.	12aa
=64	=64	=64
12B-	4dd_	12gg
12A	.	12ffn
12G	.	12ee
[4A	12dd]	12ff
.	12cc#	12ee
.	12bn	12dd
12A]	4cc#	4ee
12G	.	.
12F	.	.
12G	4r	4r
12F	.	.
12E	.	.
=65	=65	=65
8.F	12r	2r
.	12dd	.
.	12a	.
16A	.	.
8.d	12f	.
.	12a	.
.	12f	.
16A	.	.
8.F	12d	4r
.	12f	.
.	12a	.
16E	.	.
8.F	12dd	4dd
.	12cc#	.
.	12bn	.
16G	.	.
=66	=66	=66
[1A	12cc#	4a
.	12a	.
.	12e	.
.	12c#	[4aa
.	12d	.
.	12e	.
.	12f	12aa]
.	12e	12gg
.	12d	12ff
.	8.e	12gg
.	.	12ff
.	.	12ee
.	16cc#	.
=67	=67	=67
1A_	[4dd	12ff
.	.	12ee
.	.	12dd
.	12dd]	[4ee
.	12cc#	.
.	12bn	.
.	12cc#	12ee]
.	12dd	12dd
.	12ee	12cc#
.	12ff	12dd
.	12ee	12cc#
.	12dd	12b
=68	=68	=68
4A]	8.ee	12cc#
.	.	12dd
.	.	12ee
.	16g	.
4B-	12f	[4dd
.	12e	.
.	12d	.
4G	2b-T	12dd]
.	.	12ee
.	.	12ff
4C#	.	12ee
.	.	12ff
.	.	12gg
=69	=69	=69
12D	4a	8.ff
12AA	.	.
12D	.	.
.	.	16dd
12F	4r	8.a
12D	.	.
12F	.	.
.	.	16dd
4A	8.r	8.ff
.	16b-	16gg
4AA	8.a	8.ff
.	16g	16ee
=70	=70	=70
[4D	12f	12dd
.	12e	12cc
.	12d	12b-
12D]	2a	[4cc
12F#	.	.
12G	.	.
12A	.	12cc]
12B-	.	12b-
12c	.	12a
8.d	12g	12b-
.	12a	12cc
.	12b-	12dd
16D	.	.
=71	=71	=71
2.D;	2.f#;	2.a;
====	====	====
*-	*-	*-
